public/images/bd4.svg

<svg width="100" height="100" viewBox="0 0 100 100" fill="none" xmlns="http://www.w3.org/2000/svg">
<path d="M15.8176 47.5842C16.0668 48.3526 16.1968 49.1535 16.2031 49.96C16.2108 50.7775 16.0828 51.5908 15.8242 52.3678L18.3689 53.8158C19.0083 53.1753 19.7857 52.6839 20.6439 52.3777C21.502 52.0716 22.4191 51.9585 23.3277 52.0468C24.6765 52.1643 25.944 52.7306 26.921 53.652C27.9315 54.5845 28.5878 55.828 28.7815 57.1769C28.9751 58.5259 28.6944 59.8993 27.9858 61.0701C27.2772 62.2409 26.1832 63.1389 24.8847 63.6155C23.5862 64.0922 22.1611 64.1189 20.845 63.6913C19.3553 63.2032 18.1153 62.1677 17.3847 60.8015C16.6541 59.4354 16.4894 57.8445 16.925 56.3617L14.4522 54.9395C13.3353 56.1509 11.8722 57.0025 10.2545 57.3826V60.1822C11.7051 60.5771 12.9568 61.4833 13.7705 62.7278C14.5843 63.9723 14.903 65.4678 14.6657 66.9286C14.4285 68.3895 13.652 69.7132 12.4845 70.6469C11.3171 71.5807 9.84053 72.059 8.33695 71.9905C6.98742 71.942 5.69354 71.4495 4.66284 70.592C3.63214 69.7344 2.92434 68.5615 2.65295 67.2614C2.47584 66.5081 2.4578 65.7271 2.59995 64.9668C2.7421 64.2064 3.04143 63.4827 3.47942 62.8405C4.34472 61.5184 5.6847 60.5648 7.23282 60.1694C7.23282 59.2544 7.23282 58.3426 7.23282 57.4051C5.09642 56.9621 3.38142 55.909 2.20542 54.0919C1.31558 52.7409 0.899192 51.1412 1.01962 49.5362C1.23195 46.4027 3.24749 43.449 7.20669 42.5822V39.8308L6.84082 39.6992C4.37122 38.8131 2.85875 37.1051 2.57129 34.5367C2.33282 32.3953 3.17235 30.5942 4.90042 29.2458C6.05044 28.3335 7.51448 27.893 8.98702 28.0161C10.2906 28.0981 11.5331 28.5884 12.5325 29.4151C13.5318 30.2417 14.2354 31.3613 14.5401 32.6097C14.8447 33.858 14.7345 35.1695 14.2254 36.3517C13.7164 37.534 12.8353 38.5249 11.7114 39.1791C11.2606 39.4327 10.7641 39.6093 10.2545 39.8212V42.518C10.9862 42.8391 11.7408 43.1184 12.4562 43.4812C13.1889 43.8833 13.8444 44.408 14.3934 45.0318L16.8368 43.6192C15.9516 39.6574 18.4146 37.1565 20.6621 36.3635C21.9878 35.8971 23.4369 35.8961 24.7632 36.3608C26.0895 36.8254 27.2112 37.727 27.9378 38.9124C28.6644 40.0978 28.951 41.4938 28.749 42.8633C28.547 44.2329 27.8687 45.4914 26.8296 46.4252C25.0558 48.069 21.3906 48.9936 18.3036 46.1748L15.8176 47.5842ZM4.15889 49.976C4.03475 52.3068 6.15155 54.3102 8.47742 54.3455C9.64962 54.3638 10.7812 53.9237 11.6233 53.122C12.4653 52.3204 12.9488 51.2228 12.9675 50.0707C12.9861 48.9187 12.5383 47.8065 11.7226 46.979C10.9069 46.1514 9.79009 45.6762 8.61789 45.6579C6.17115 45.6161 4.05435 47.6965 4.15889 49.976ZM11.3815 33.9973C11.3815 33.2578 11.0826 32.5486 10.5505 32.0257C10.0185 31.5028 9.29683 31.209 8.54439 31.209C7.79194 31.209 7.07031 31.5028 6.53825 32.0257C6.0062 32.5486 5.70729 33.2578 5.70729 33.9973C5.70729 34.7368 6.0062 35.446 6.53825 35.969C7.07031 36.4919 7.79194 36.7856 8.54439 36.7856C9.29683 36.7856 10.0185 36.4919 10.5505 35.969C11.0826 35.446 11.3815 34.7368 11.3815 33.9973ZM8.54929 68.796C9.29935 68.796 10.0189 68.5043 10.5508 67.9845C11.0827 67.4648 11.3837 66.7593 11.388 66.0221C11.388 65.2818 11.0888 64.5717 10.5561 64.0482C10.0234 63.5247 9.30097 63.2306 8.54765 63.2306C7.79434 63.2306 7.07188 63.5247 6.53921 64.0482C6.00654 64.5717 5.70729 65.2818 5.70729 66.0221C5.71075 66.7601 6.0119 67.4666 6.5447 67.9866C7.07749 68.5066 7.7984 68.7977 8.54929 68.796ZM25.5588 41.9915C25.561 41.6261 25.4897 41.264 25.349 40.9258C25.2083 40.5876 25.0011 40.28 24.7391 40.0208C24.4772 39.7616 24.1657 39.5557 23.8226 39.4151C23.4794 39.2746 23.1114 39.202 22.7397 39.2015C21.9864 39.2015 21.2639 39.4957 20.7312 40.0192C20.1986 40.5427 19.8993 41.2527 19.8993 41.9931C19.8993 42.7334 20.1986 43.4435 20.7312 43.967C21.2639 44.4905 21.9864 44.7846 22.7397 44.7846C23.1116 44.7838 23.4797 44.7108 23.8228 44.5699C24.1659 44.4289 24.4774 44.2228 24.7393 43.9633C25.0012 43.7038 25.2084 43.396 25.3491 43.0577C25.4897 42.7193 25.561 42.357 25.5588 41.9915ZM22.756 55.2316C22.3841 55.2252 22.0145 55.2914 21.6687 55.4262C21.3229 55.561 21.0076 55.7618 20.7413 56.0171C20.4749 56.2723 20.2626 56.5769 20.1167 56.9132C19.9708 57.2496 19.8941 57.611 19.8912 57.9766C19.8847 58.7165 20.1775 59.4287 20.7053 59.9564C21.233 60.4842 21.9525 60.7842 22.7054 60.7906C23.4583 60.797 24.1829 60.5092 24.7199 59.9905C25.2568 59.4718 25.5621 58.7647 25.5686 58.0247C25.5716 57.6596 25.5012 57.2974 25.3612 56.959C25.2213 56.6207 25.0147 56.3129 24.7533 56.0533C24.492 55.7937 24.1809 55.5875 23.8382 55.4465C23.4954 55.3055 23.1276 55.2324 22.756 55.2316Z" fill="black"/>
<path d="M34.3004 60.5418C34.1894 60.0185 34.2057 39.5355 34.3004 39.1887H37.1947V52.0596C37.4789 51.806 37.7043 51.6198 37.9134 51.4175C38.9162 50.4544 39.9191 49.4591 40.9089 48.4671C41.0128 48.3525 41.1416 48.2623 41.2859 48.2034C41.4301 48.1445 41.586 48.1183 41.7419 48.1268C42.7219 48.1492 43.7019 48.1268 44.6819 48.1268C44.8224 48.1268 44.9661 48.1268 45.2209 48.1589C43.3916 49.9503 41.5818 51.607 39.7884 53.3599C41.6864 55.7293 43.6333 58.0472 45.5606 60.4519C45.4547 60.489 45.3452 60.5159 45.234 60.5322C44.1952 60.5322 43.1596 60.5322 42.1208 60.5322C41.9863 60.5281 41.8553 60.4895 41.7407 60.4202C41.626 60.351 41.5319 60.2534 41.4675 60.1373L37.8742 55.6426C37.8121 55.5623 37.7402 55.4917 37.6749 55.4146C37.5222 55.482 37.3954 55.5956 37.3131 55.7389C37.2308 55.8821 37.1973 56.0475 37.2176 56.2108C37.2372 57.4661 37.2176 58.7214 37.2176 59.9768V60.4969C36.218 60.5771 35.2674 60.529 34.3004 60.5418Z" fill="black"/>
<path d="M72.3833 52.0404C72.8439 51.5973 73.2293 51.2313 73.6115 50.8557C74.4413 50.0434 75.2743 49.2312 76.0942 48.4093C76.1778 48.3169 76.2812 48.2439 76.3971 48.1956C76.5129 48.1473 76.6381 48.1249 76.7639 48.13C77.8157 48.13 78.8676 48.13 79.9195 48.13C80.024 48.13 80.1253 48.13 80.2461 48.13C80.1318 48.4061 79.3151 49.2119 78.5213 49.915C77.9072 50.4576 77.3355 51.0451 76.741 51.6102C76.1465 52.1752 75.5323 52.7499 74.9051 53.3406L80.7067 60.468C80.6005 60.5027 80.4911 60.5274 80.3801 60.5418C79.3282 60.5418 78.2763 60.5418 77.2245 60.5418C77.1204 60.5472 77.0167 60.5262 76.9234 60.4806C76.8301 60.435 76.7504 60.3665 76.692 60.2818C75.5029 58.7835 74.3051 57.2853 73.0987 55.787C72.9974 55.6618 72.8929 55.543 72.7883 55.421C72.6529 55.4792 72.5396 55.5778 72.4645 55.7029C72.3895 55.828 72.3565 55.9731 72.3702 56.1177C72.3702 57.4019 72.3702 58.6861 72.3702 59.9703V60.4326C71.9749 60.5739 69.832 60.5803 69.4041 60.4551V39.1887H72.3441C72.4029 40.261 72.3637 41.3173 72.3702 42.3768C72.3767 43.4362 72.3702 44.5053 72.3702 45.568V48.7592C72.3833 49.8219 72.3833 50.8846 72.3833 52.0404Z" fill="black"/>
<path d="M93.1756 60.5129H90.2584C90.0592 60.1758 90.2584 59.8001 90.1114 59.4245C90.0102 59.4919 89.9154 59.5433 89.8305 59.6107C88.8553 60.4267 87.6208 60.8822 86.3402 60.8987C85.0596 60.9151 83.8134 60.4913 82.817 59.7006C82.1644 59.1877 81.6217 58.5528 81.2202 57.8326C80.8188 57.1124 80.5665 56.3211 80.478 55.5045C80.2596 54.2162 80.3903 52.894 80.857 51.6711C81.6573 49.6967 83.0489 48.3386 85.231 47.9181C86.0432 47.7505 86.8844 47.7774 87.6838 47.9964C88.4831 48.2154 89.2172 48.6202 89.824 49.1766L90.1506 49.4655L90.18 48.1813C91.1927 48.1267 92.14 48.1621 93.1494 48.1556C93.1781 48.3031 93.1978 48.4521 93.2082 48.6019C93.2082 52.4417 93.2082 56.2814 93.2082 60.1212C93.2082 60.2207 93.1886 60.3363 93.1756 60.5129ZM90.3434 54.4386C90.4114 53.4509 90.1131 52.4723 89.5038 51.684C88.9804 51.0562 88.2414 50.6382 87.4261 50.5086C86.6108 50.3791 85.7755 50.5471 85.0775 50.9809C84.4861 51.3731 84.0304 51.933 83.7708 52.5861C83.3405 53.668 83.315 54.865 83.699 55.9636C83.9294 56.6718 84.3881 57.2871 85.0056 57.7165C86.1882 58.5673 88.4977 58.5127 89.6182 56.8946C90.1264 56.1758 90.3811 55.3132 90.3434 54.4386Z" fill="black"/>
<path d="M58.0262 48.1396V60.4391C57.6767 60.5707 55.5697 60.59 55.0633 60.4615V59.3282C54.8118 59.5177 54.6256 59.6493 54.4361 59.8034C53.5543 60.4848 52.4707 60.8657 51.3491 60.8885C50.4435 60.9251 49.5425 60.7432 48.7248 60.3587C47.9071 59.9742 47.1976 59.3989 46.6582 58.6829C45.8393 57.6159 45.3597 56.3347 45.2797 55.0005C45.1585 53.8378 45.3209 52.6636 45.7533 51.5749C46.4851 49.8155 47.7133 48.5377 49.6243 48.0208C50.4623 47.7677 51.3521 47.7289 52.2095 47.9081C53.067 48.0873 53.8637 48.4786 54.5243 49.045L55.0372 49.4591V48.1525C56.0531 48.1204 57.0201 48.1364 58.0262 48.1396ZM55.2789 54.368C55.2205 53.8882 55.1333 53.4122 55.0176 52.9425C54.83 52.2386 54.4117 51.615 53.8275 51.168C53.2433 50.7209 52.5256 50.4754 51.7853 50.4691C51.0449 50.4629 50.323 50.6964 49.7311 51.1336C49.1392 51.5708 48.7103 52.1873 48.5104 52.888C48.2614 53.6805 48.2209 54.5222 48.3928 55.3344C48.6803 56.885 49.9118 58.3683 51.9437 58.2238C52.494 58.2106 53.0314 58.0576 53.5037 57.7797C53.976 57.5017 54.367 57.1084 54.6387 56.6378C55.042 55.9447 55.2622 55.1632 55.2789 54.3648V54.368Z" fill="black"/>
<path d="M67.2872 39.272V42.2353C67.0912 42.1518 66.9605 42.0973 66.807 42.0266C66.4336 41.8398 66.0321 41.713 65.6179 41.651C65.4679 41.6121 65.311 41.6058 65.1583 41.6325C65.0055 41.6593 64.8605 41.7184 64.7333 41.8058C64.6062 41.8932 64.4999 42.0067 64.4219 42.1386C64.344 42.2704 64.2962 42.4174 64.2818 42.5692C64.22 42.902 64.1851 43.2391 64.1773 43.5773C64.1773 44.9643 64.1773 46.3544 64.1773 47.751C64.1773 47.8665 64.1773 47.9789 64.2067 48.1459H67.2022C67.3492 48.5247 67.3623 50.4478 67.2284 50.9069H64.1871C64.1871 52.0113 64.1871 53.0676 64.1871 54.1174C64.1871 55.1672 64.1871 56.2139 64.1871 57.2637V60.4293C63.8604 60.5705 61.8449 60.6091 61.2046 60.4903C61.1589 59.4468 61.2046 58.3874 61.185 57.3343C61.1654 56.2813 61.185 55.209 61.185 54.1431C61.185 53.0772 61.185 52.0242 61.185 50.9326L60.2312 50.8876C60.0976 49.9817 60.0976 49.0615 60.2312 48.1555H61.1589C61.1589 47.9629 61.1785 47.8088 61.1785 47.6514C61.1785 46.0462 61.1785 44.4409 61.1948 42.8357C61.219 42.3363 61.2934 41.8406 61.417 41.3556C61.5072 40.9417 61.6888 40.5523 61.949 40.215C62.2093 39.8777 62.5417 39.6007 62.9229 39.4037C64.3439 38.6042 65.8008 38.6428 67.2872 39.272Z" fill="black"/>
<path d="M96.782 56.1946C97.2175 56.1959 97.6429 56.3237 98.0046 56.562C98.3664 56.8002 98.6484 57.1383 98.8152 57.5337C98.982 57.929 99.0261 58.3641 98.942 58.784C98.8579 59.204 98.6494 59.5901 98.3425 59.8939C98.0357 60.1976 97.6444 60.4054 97.2177 60.4912C96.791 60.5769 96.3481 60.5368 95.9446 60.3758C95.5411 60.2147 95.195 59.9401 94.95 59.5863C94.7049 59.2325 94.5717 58.8153 94.5672 58.3874C94.5587 58.0985 94.6101 57.811 94.7182 57.5422C94.8263 57.2735 94.9888 57.0291 95.196 56.824C95.4031 56.6189 95.6505 56.4574 95.9232 56.3492C96.1958 56.241 96.488 56.1884 96.782 56.1946ZM96.7983 56.6473C96.5667 56.6371 96.3354 56.6738 96.1187 56.755C95.902 56.8362 95.7046 56.9602 95.5387 57.1194C95.3727 57.2786 95.2417 57.4696 95.1539 57.6805C95.066 57.8914 95.0231 58.1178 95.0278 58.3456C95.0243 58.5708 95.066 58.7944 95.1505 59.0037C95.235 59.213 95.3606 59.4039 95.5202 59.5655C95.6797 59.7271 95.8701 59.8562 96.0805 59.9454C96.2908 60.0347 96.517 60.0824 96.7461 60.0857C96.9785 60.0904 97.2097 60.0499 97.4261 59.9664C97.6426 59.883 97.8402 59.7583 98.0074 59.5996C98.1747 59.4409 98.3084 59.2512 98.4008 59.0415C98.4933 58.8318 98.5426 58.6062 98.546 58.3777C98.5531 58.1499 98.513 57.9231 98.4281 57.711C98.3432 57.499 98.2152 57.3061 98.052 57.1442C97.8888 56.9823 97.6938 56.8548 97.4788 56.7693C97.2638 56.6839 97.0334 56.6424 96.8016 56.6473H96.7983Z" fill="black"/>
<path d="M55.1385 42.9707H54.5897V41.3654H53.1687L53.1327 42.9707H52.5382V39.4038H53.1229C53.1229 39.6382 53.1458 39.8565 53.1491 40.0716C53.1523 40.2867 53.1491 40.4793 53.1491 40.733C53.6293 40.7651 54.0735 40.733 54.5733 40.733V39.4038H55.1319C55.2561 39.7698 55.2626 42.5373 55.1385 42.9707Z" fill="black"/>
<path d="M58.0328 42.9771H56.0401C55.9284 41.7976 55.9164 40.611 56.0042 39.4295C56.6675 39.3472 57.3381 39.3386 58.0034 39.4038V39.9625H56.6379V40.688L57.9446 40.7362V41.3173H56.7033C56.5931 41.6689 56.5863 42.044 56.6837 42.3992H58.0067L58.0328 42.9771Z" fill="black"/>
<path d="M41.3204 39.2271L43.0256 42.9673H42.3527L41.964 42.1615H40.5266C40.4548 42.2931 40.3764 42.4311 40.3045 42.5756C40.0726 43.0508 40.0693 43.054 39.465 42.9384C40.0334 41.6863 40.6246 40.4599 41.2126 39.2335L41.3204 39.2271ZM41.2453 40.5755C41.0563 40.8723 40.9183 41.1977 40.837 41.5386H41.6896C41.5752 41.2721 41.4805 41.0442 41.3792 40.8163C41.3388 40.7338 41.2941 40.6534 41.2453 40.5755Z" fill="black"/>
<path d="M46.0016 42.9737H45.3483C45.5998 42.2834 45.9265 41.6895 46.2172 41.0474C46.5079 40.4053 46.7954 39.8242 47.1319 39.1211C47.7591 40.4053 48.3111 41.6446 48.8893 42.9448L48.2556 43.009L47.8375 42.1518H46.4067L46.0016 42.9737ZM47.5925 41.5354L47.1417 40.5369L46.6713 41.5354H47.5925Z" fill="black"/>
<path d="M43.4275 39.4293C43.8966 39.329 44.3837 39.3445 44.8452 39.4743C45.0577 39.55 45.2408 39.6891 45.369 39.8721C45.4971 40.0551 45.5638 40.2729 45.5599 40.495C45.5559 40.7171 45.4815 40.9324 45.3469 41.1109C45.2123 41.2894 45.0244 41.4221 44.8093 41.4905C44.5937 41.5515 44.3683 41.5739 44.0874 41.6221L44.0547 42.9673H43.4961C43.4143 42.5822 43.3922 42.1871 43.4308 41.7954C43.4308 41.4134 43.4308 41.0281 43.4308 40.6429L43.4275 39.4293ZM44.0808 40.0168V40.935C44.3716 40.9703 44.6394 40.9992 44.8322 40.7552C44.8901 40.6864 44.9249 40.6016 44.932 40.5125C44.939 40.4235 44.9178 40.3344 44.8714 40.2576C44.7146 39.9655 44.4467 39.959 44.0939 40.0168H44.0808Z" fill="black"/>
<path d="M51.7934 42.0845V42.7266C51.0715 43.2789 49.9576 43.0477 49.4218 42.4698C49.1103 42.1451 48.9285 41.7208 48.9099 41.2748C48.8913 40.8289 49.0371 40.3914 49.3206 40.0427C49.5997 39.6745 50.0106 39.4243 50.4703 39.3426C50.93 39.2609 51.4041 39.354 51.7967 39.6028V40.2064C51.604 40.2353 51.4962 40.0876 51.3557 40.0266C51.2001 39.9523 51.0305 39.9106 50.8576 39.9043C50.6847 39.898 50.5123 39.9272 50.3516 39.9901C50.1908 40.0529 50.0452 40.148 49.9239 40.2693C49.8026 40.3905 49.7084 40.5353 49.6472 40.6944C49.5786 40.8505 49.5429 41.0188 49.5423 41.1889C49.5417 41.3589 49.5761 41.5274 49.6436 41.684C49.7111 41.8407 49.8102 41.9822 49.9349 42.1002C50.0596 42.2181 50.2073 42.31 50.3692 42.3703C50.53 42.4329 50.7028 42.4602 50.8755 42.4502C51.0482 42.4402 51.2165 42.3932 51.3688 42.3125C51.4962 42.2547 51.6334 42.1809 51.7934 42.0845Z" fill="black"/>
<path d="M96.4716 58.7792V59.5433H96.0927C96.0927 58.76 96.0927 57.9895 96.0927 57.1804C96.3548 57.1628 96.6178 57.1628 96.8799 57.1804C97.0164 57.1904 97.1463 57.2422 97.2512 57.3286C97.3561 57.415 97.4308 57.5316 97.4646 57.662C97.5115 57.8114 97.5046 57.9721 97.4452 58.1171C97.3857 58.2621 97.2772 58.3825 97.138 58.4582C97.089 58.4903 97.0367 58.5192 96.9714 58.5577L97.6933 59.5016C97.4222 59.6172 97.2458 59.6108 97.0923 59.4085C96.9387 59.2062 96.7427 58.9719 96.5696 58.7664L96.4716 58.7792ZM96.5141 58.1371C96.7101 58.1596 96.8962 58.2078 97.0073 58.028C97.0315 57.9778 97.044 57.923 97.044 57.8675C97.044 57.8119 97.0315 57.7571 97.0073 57.7069C96.8962 57.5079 96.7035 57.5271 96.501 57.5785L96.5141 58.1371Z" fill="black"/>
</svg>

<svg xmlns="http://www.w3.org/2000/svg" width="100" height="100" fill="none"><path fill="#000" d="M15.818 47.584a7.9 7.9 0 0 1 .385 2.376c.008.818-.12 1.63-.379 2.408l2.545 1.448a6.1 6.1 0 0 1 2.275-1.438 6.2 6.2 0 0 1 2.684-.331 6 6 0 0 1 3.593 1.605 5.95 5.95 0 0 1 1.86 3.525 5.9 5.9 0 0 1-.795 3.893 6.06 6.06 0 0 1-3.101 2.545 6.2 6.2 0 0 1-4.04.076 6.06 6.06 0 0 1-3.46-2.89 5.89 5.89 0 0 1-.46-4.44l-2.473-1.421a8.3 8.3 0 0 1-4.197 2.443v2.8a6.12 6.12 0 0 1 3.515 2.545 5.93 5.93 0 0 1 .896 4.2 6 6 0 0 1-2.181 3.719 6.2 6.2 0 0 1-4.148 1.343 6.1 6.1 0 0 1-3.674-1.398 5.9 5.9 0 0 1-2.01-3.33 5.6 5.6 0 0 1-.053-2.295 5.6 5.6 0 0 1 .88-2.126 6.36 6.36 0 0 1 3.753-2.672v-2.764c-2.137-.443-3.852-1.496-5.028-3.313a7.3 7.3 0 0 1-1.185-4.556c.212-3.133 2.227-6.087 6.187-6.954v-2.751l-.366-.132c-2.47-.886-3.982-2.594-4.27-5.162-.238-2.142.601-3.943 2.33-5.291a5.8 5.8 0 0 1 4.086-1.23 6.17 6.17 0 0 1 3.546 1.4 6 6 0 0 1 2.007 3.194 5.9 5.9 0 0 1-.315 3.742 6.04 6.04 0 0 1-2.514 2.827c-.45.254-.947.43-1.457.642v2.697c.732.321 1.487.6 2.202.963a7.2 7.2 0 0 1 1.937 1.55l2.444-1.412c-.885-3.962 1.578-6.462 3.825-7.255a6.2 6.2 0 0 1 4.101-.003 6.07 6.07 0 0 1 3.175 2.551 5.9 5.9 0 0 1 .811 3.951 5.96 5.96 0 0 1-1.92 3.562c-1.773 1.644-5.438 2.569-8.525-.25zm-11.66 2.392c-.123 2.33 1.994 4.334 4.32 4.37a4.46 4.46 0 0 0 3.145-1.224 4.3 4.3 0 0 0 1.345-3.051 4.3 4.3 0 0 0-1.245-3.092 4.46 4.46 0 0 0-3.105-1.321c-2.447-.042-4.564 2.038-4.46 4.318m7.224-15.979c0-.74-.3-1.448-.832-1.971a2.86 2.86 0 0 0-2.006-.817c-.752 0-1.474.294-2.006.817a2.76 2.76 0 0 0-.83 1.971c0 .74.298 1.449.83 1.972a2.86 2.86 0 0 0 2.006.817c.753 0 1.474-.294 2.006-.817a2.76 2.76 0 0 0 .832-1.972M8.549 68.796c.75 0 1.47-.292 2.002-.812s.833-1.225.837-1.962c0-.74-.3-1.45-.832-1.974a2.87 2.87 0 0 0-2.008-.817c-.754 0-1.476.294-2.009.817a2.77 2.77 0 0 0-.832 1.974c.004.738.305 1.445.838 1.965s1.253.81 2.004.809m17.01-26.805a2.7 2.7 0 0 0-.21-1.065 2.8 2.8 0 0 0-.61-.905 2.8 2.8 0 0 0-.916-.606 2.87 2.87 0 0 0-3.092.604 2.77 2.77 0 0 0-.832 1.974c0 .74.3 1.45.832 1.974a2.87 2.87 0 0 0 3.092.603 2.8 2.8 0 0 0 .916-.607 2.735 2.735 0 0 0 .82-1.972m-2.803 13.24a2.86 2.86 0 0 0-2.015.786c-.266.255-.478.56-.624.896a2.7 2.7 0 0 0-.226 1.064c-.006.74.287 1.452.814 1.98a2.86 2.86 0 0 0 2 .834 2.87 2.87 0 0 0 2.015-.8 2.77 2.77 0 0 0 .849-1.966 2.7 2.7 0 0 0-.208-1.066 2.8 2.8 0 0 0-.608-.906 2.8 2.8 0 0 0-.915-.606 2.9 2.9 0 0 0-1.082-.215M34.3 60.542c-.11-.523-.094-21.007 0-21.353h2.895v12.87c.284-.253.51-.44.718-.642a198 198 0 0 0 2.996-2.95 1.04 1.04 0 0 1 .833-.34c.98.022 1.96 0 2.94 0 .14 0 .284 0 .539.032-1.83 1.791-3.64 3.448-5.433 5.2 1.898 2.37 3.845 4.688 5.773 7.093a2 2 0 0 1-.327.08h-3.113a.78.78 0 0 1-.654-.395l-3.593-4.494c-.062-.08-.134-.151-.2-.228a.78.78 0 0 0-.36.324.76.76 0 0 0-.096.472c.02 1.255 0 2.51 0 3.766v.52c-1 .08-1.95.032-2.918.045M72.383 52.04c.46-.443.846-.809 1.229-1.184.83-.813 1.662-1.625 2.482-2.447a.85.85 0 0 1 .67-.279h3.482c-.114.276-.93 1.082-1.725 1.785-.614.543-1.186 1.13-1.78 1.695s-1.209 1.14-1.836 1.73l5.802 7.128q-.16.053-.327.074h-3.155a.61.61 0 0 1-.533-.26 817 817 0 0 0-3.593-4.495c-.102-.125-.206-.244-.31-.366a.7.7 0 0 0-.325.282.7.7 0 0 0-.094.415v4.3149999999999995c-.395.14-2.538.147-2.966.022V39.19h2.94c.059 1.072.02 2.128.026 3.188.007 1.06 0 2.128 0 3.191v3.191c.013 1.063.013 2.126.013 3.281"/><path fill="#000" d="M93.176 60.513h-2.918c-.199-.337 0-.713-.147-1.088-.1.067-.196.118-.28.186a5.55 5.55 0 0 1-3.49 1.288 5.56 5.56 0 0 1-3.524-1.198 6.2 6.2 0 0 1-1.597-1.868 6.1 6.1 0 0 1-.742-2.328 7.3 7.3 0 0 1 .379-3.834c.8-1.974 2.192-3.332 4.374-3.753a5.26 5.26 0 0 1 2.453.078 5.2 5.2 0 0 1 2.14 1.18l.327.29.029-1.285c1.013-.054 1.96-.019 2.97-.025q.042.22.058.446v11.52c0 .099-.02.214-.032.39m-2.833-6.074a4.05 4.05 0 0 0-.84-2.755 3.4 3.4 0 0 0-2.077-1.175 3.43 3.43 0 0 0-2.349.472 3.46 3.46 0 0 0-1.306 1.605 4.82 4.82 0 0 0-.072 3.378 3.43 3.43 0 0 0 1.307 1.753c1.182.85 3.492.796 4.612-.822a3.96 3.96 0 0 0 .725-2.456M58.026 48.14v12.3c-.35.13-2.456.15-2.963.022v-1.134c-.251.19-.437.321-.627.475a5.22 5.22 0 0 1-3.087 1.086 5.64 5.64 0 0 1-2.624-.53 5.53 5.53 0 0 1-2.067-1.676A6.7 6.7 0 0 1 45.28 55a7.24 7.24 0 0 1 .473-3.426c.732-1.76 1.96-3.037 3.871-3.554a5.24 5.24 0 0 1 2.585-.113c.858.18 1.655.57 2.315 1.137l.513.414v-1.306c1.016-.033 1.983-.017 2.99-.013m-2.747 6.228q-.088-.72-.261-1.425a3.3 3.3 0 0 0-1.19-1.775 3.4 3.4 0 0 0-2.043-.699 3.4 3.4 0 0 0-2.054.665 3.3 3.3 0 0 0-1.22 1.754 4.8 4.8 0 0 0-.118 2.446c.287 1.551 1.519 3.034 3.55 2.89a3.23 3.23 0 0 0 1.56-.444 3.16 3.16 0 0 0 1.136-1.142 4.7 4.7 0 0 0 .64-2.273zM67.287 39.272v2.963c-.196-.083-.327-.138-.48-.208a4 4 0 0 0-1.19-.376 1.09 1.09 0 0 0-.884.155 1.06 1.06 0 0 0-.451.763 6.3 6.3 0 0 0-.105 1.008v4.174c0 .116 0 .228.03.395h2.995c.147.379.16 2.302.026 2.76h-3.04v9.523c-.328.142-2.343.18-2.983.061-.046-1.043 0-2.103-.02-3.156s0-2.125 0-3.19v-3.211l-.954-.045a9.4 9.4 0 0 1 0-2.732h.928c0-.193.02-.347.02-.505 0-1.605 0-3.21.016-4.815q.036-.751.222-1.48c.09-.414.272-.804.532-1.141s.593-.614.974-.811c1.42-.8 2.878-.761 4.364-.132M96.782 56.195c.436 0 .86.129 1.223.367.361.238.643.576.81.972.167.395.211.83.127 1.25s-.293.806-.6 1.11a2.2 2.2 0 0 1-1.124.597c-.427.086-.87.046-1.273-.115a2.2 2.2 0 0 1-.995-.79 2.14 2.14 0 0 1-.383-1.199 2.1 2.1 0 0 1 .629-1.563 2.203 2.203 0 0 1 1.586-.63m.016.452a1.72 1.72 0 0 0-1.26.472 1.66 1.66 0 0 0-.51 1.227 1.69 1.69 0 0 0 .492 1.22 1.769 1.769 0 0 0 1.226.52 1.8 1.8 0 0 0 1.261-.486 1.73 1.73 0 0 0 .421-1.889 1.7 1.7 0 0 0-.376-.567 1.71 1.71 0 0 0-1.25-.497zM55.139 42.97h-.55v-1.605h-1.42l-.036 1.606h-.595v-3.567h.585c0 .234.023.452.026.668.003.215 0 .407 0 .661.48.032.925 0 1.424 0v-1.33h.559c.124.367.13 3.134.007 3.568M58.033 42.977H56.04a21 21 0 0 1-.036-3.547 9 9 0 0 1 2-.026v.558h-1.366v.726l1.307.048v.581h-1.242c-.11.352-.117.727-.02 1.082h1.324zM41.32 39.227l1.706 3.74h-.673l-.389-.806h-1.437c-.072.132-.15.27-.223.415-.231.475-.235.478-.839.362.568-1.252 1.16-2.478 1.748-3.705zm-.075 1.349a3.2 3.2 0 0 0-.408.963h.853c-.115-.267-.21-.495-.31-.723a3 3 0 0 0-.135-.24M46.002 42.974h-.654c.252-.69.578-1.284.87-1.927.29-.642.577-1.223.914-1.926.627 1.284 1.18 2.524 1.757 3.824l-.633.064-.419-.857h-1.43zm1.59-1.439-.45-.998-.47.998zM43.428 39.43c.469-.101.956-.086 1.417.044.213.076.396.215.524.398a1.05 1.05 0 0 1-.022 1.239 1.1 1.1 0 0 1-.538.38c-.215.06-.44.083-.722.131l-.032 1.345h-.559a3.8 3.8 0 0 1-.065-1.172v-1.152zm.653.587v.918c.29.035.558.064.751-.18a.43.43 0 0 0 .04-.497c-.157-.293-.425-.299-.778-.241zM51.793 42.085v.642c-.721.552-1.835.32-2.371-.257a1.831 1.831 0 0 1-.101-2.427c.279-.368.69-.619 1.15-.7a1.87 1.87 0 0 1 1.326.26v.603c-.193.03-.3-.118-.441-.18a1.26 1.26 0 0 0-1.432.243 1.2 1.2 0 0 0-.277.425 1.24 1.24 0 0 0 .288 1.406 1.29 1.29 0 0 0 .94.35c.173-.01.342-.057.494-.138.127-.057.264-.131.424-.227"/><path fill="#000" d="M96.472 58.78v.763h-.38V57.18q.395-.026.788 0a.66.66 0 0 1 .371.149.64.64 0 0 1 .214.333.67.67 0 0 1-.02.455.7.7 0 0 1-.307.341c-.049.032-.101.061-.167.1l.722.944c-.27.115-.447.109-.6-.094-.154-.202-.35-.436-.523-.642zm.042-.643c.196.023.382.07.493-.109a.37.37 0 0 0 0-.321c-.11-.2-.303-.18-.506-.129z"/></svg>
